; generated by PrusaSlicer 2.6.0 on 2023-09-07 at 18:02:56 UTC

; 

; external perimeters extrusion width = 0.45mm
; perimeters extrusion width = 0.45mm
; infill extrusion width = 0.45mm
; solid infill extrusion width = 0.45mm
; top infill extrusion width = 0.45mm
; support material extrusion width = 0.35mm
; first layer extrusion width = 0.42mm

M73 P0 R77
M73 C50
M201 X9000 Y9000 Z500 E10000 ; sets maximum accelerations, mm/sec^2
M203 X500 Y500 Z12 E120 ; sets maximum feedrates, mm / sec
M204 S2000 T1500 ; sets acceleration (S) and retract acceleration (R), mm/sec^2
M205 X10.00 Y10.00 Z0.20 E4.50 ; sets the jerk limits, mm/sec
M205 S0 T0 ; sets the minimum extruding and travel feed rate, mm/sec
;TYPE:Custom
M862.3 P "MK2.5S" ; printer model check
M862.1 P0.4 ; nozzle diameter check
M115 U3.2.3 ; tell printer latest fw version
G90 ; use absolute coordinates
M83 ; extruder relative mode
M204 S2000 T1500 ; MK2 firmware only supports the old M204 format
G28 W ; home all without mesh bed level
G1 Z30
M140 S85 ; set bed temp
M190 S85 ; wait for bed temp
G28 W
M104 S240 ; set extruder temp
G80 ; mesh bed leveling
G1 Y-3.0 F1000.0 ; go outside print area
M109 S240 ; wait for extruder temp
G92 E0.0
G1 X60.0 E9.0  F1000.0 ; intro line
G1 X100.0 E12.5 F1000.0 ; intro line
G92 E0.0
G21 ; set units to millimeters
G90 ; use absolute coordinates
M83 ; use relative distances for extrusion
M900 K0.08 ; Filament gcode LA 1.5
M900 K45 ; Filament gcode LA 1.0

M221 105 ; set flow rate to 105
M107
;LAYER_CHANGE
;Z:0.2
;HEIGHT:0.2
;BEFORE_LAYER_CHANGE
G92 E0.0
M221 S120
;LayerZ: 0.2
;LayerNUM: 0
G1 E-6 F3900
G1 Z.6 F10800
;AFTER_LAYER_CHANGE
;0.2
G1 X95.195 Y78.537
G1 Z.2
G1 E6 F3900
M204 S1000
;TYPE:Skirt/Brim
;WIDTH:0.42
G1 F1200
G1 X95.451 Y78.227 E.01235
G1 X98.412 Y75.285 E.12826
G1 X101.462 Y72.815 E.1206
G1 X104.955 Y70.53 E.12826
G1 X108.668 Y68.624 E.12824
G1 X112.56 Y67.116 E.12825
G1 X116.588 Y66.023 E.12824
G1 X120.708 Y65.358 E.12823
G1 X124.876 Y65.126 E.12827
G1 X127.868 Y65.27 E.09204
G1 X129.292 Y65.358 E.04384
G1 X133.412 Y66.023 E.12823
G1 X137.44 Y67.116 E.12824
G1 X141.332 Y68.624 E.12825
M73 P0 R76
G1 X145.045 Y70.53 E.12824
G1 X148.538 Y72.815 E.12826
G1 X151.773 Y75.451 E.12822
G1 X154.715 Y78.412 E.12826
G1 X157.185 Y81.462 E.1206
G1 X159.47 Y84.955 E.12826
G1 X161.376 Y88.668 E.12824
G1 X162.884 Y92.56 E.12825
G1 X163.977 Y96.588 E.12824
G1 X164.642 Y100.708 E.12823
G1 X164.874 Y104.876 E.12827
G1 X164.668 Y109.044 E.12823
G1 X164.028 Y113.169 E.12827
G1 X162.961 Y117.203 E.12822
G1 X161.477 Y121.104 E.12825
G1 X159.594 Y124.829 E.12825
G1 X157.332 Y128.337 E.12826
G1 X155.456 Y130.673 E.09206
G1 X154.549 Y131.773 E.04381
G1 X151.588 Y134.715 E.12826
G1 X148.538 Y137.185 E.1206
G1 X145.045 Y139.47 E.12826
G1 X141.332 Y141.376 E.12824
G1 X137.44 Y142.884 E.12825
G1 X133.412 Y143.977 E.12824
G1 X129.292 Y144.642 E.12823
G1 X125.124 Y144.874 E.12827
G1 X120.956 Y144.668 E.12823
G1 X116.831 Y144.028 E.12827
G1 X112.797 Y142.961 E.12822
G1 X108.896 Y141.477 E.12825
G1 X105.521 Y139.772 E.11619
G1 X101.462 Y137.185 E.1479
G1 X98.227 Y134.549 E.12822
G1 X95.285 Y131.588 E.12826
G1 X92.815 Y128.538 E.1206
G1 X90.53 Y125.045 E.12826
G1 X88.624 Y121.332 E.12824
G1 X87.116 Y117.44 E.12825
G1 X86.023 Y113.412 E.12824
G1 X85.358 Y109.292 E.12823
G1 X85.126 Y105.124 E.12827
G1 X85.332 Y100.956 E.12823
G1 X85.972 Y96.831 E.12827
G1 X87.039 Y92.797 E.12822
G1 X88.523 Y88.896 E.12825
G1 X90.406 Y85.171 E.12825
G1 X92.668 Y81.663 E.12826
G1 X95.157 Y78.584 E.12166
; printing object Puck-Body.stl id:0 copy 0
;WIPE_START
G1 F8640
G1 X95.451 Y78.227 E-.19832
G1 X98.412 Y75.285 E-1.78992
G1 X101.462 Y72.815 E-1.68299
G1 X104.955 Y70.53 E-1.78989
G1 X106.073 Y69.956 E-.53888
;WIPE_END
G1 Z.8 F10800
G1 X97.998 Y80.688
G1 Z.2
G1 E6 F3900
;TYPE:Perimeter
;WIDTH:0.419999
G1 F1200
G1 X100.688 Y77.998 E.11689
G1 X103.643 Y75.605 E.11684
G1 X106.833 Y73.534 E.11686
G1 X110.222 Y71.807 E.11688
G1 X113.772 Y70.444 E.11685
G1 X117.446 Y69.46 E.11687
G1 X121.202 Y68.865 E.11685
G1 X125 Y68.666 E.11686
G1 X128.798 Y68.865 E.11686
G1 X132.554 Y69.46 E.11685
G1 X136.228 Y70.444 E.11687
G1 X139.778 Y71.807 E.11685
G1 X143.167 Y73.534 E.11688
G1 X146.357 Y75.605 E.11686
G1 X149.312 Y77.998 E.11684
G1 X152.002 Y80.688 E.11689
G1 X154.395 Y83.643 E.11684
G1 X156.466 Y86.833 E.11686
G1 X158.193 Y90.222 E.11688
G1 X159.556 Y93.772 E.11685
G1 X160.54 Y97.446 E.11687
G1 X161.135 Y101.202 E.11685
G1 X161.334 Y105 E.11686
G1 X161.135 Y108.798 E.11686
G1 X160.54 Y112.554 E.11685
G1 X159.556 Y116.228 E.11687
G1 X158.193 Y119.778 E.11685
G1 X156.466 Y123.167 E.11688
G1 X154.395 Y126.357 E.11686
G1 X152.002 Y129.312 E.11684
G1 X149.312 Y132.002 E.11689
G1 X146.357 Y134.395 E.11684
G1 X143.167 Y136.466 E.11686
G1 X139.778 Y138.193 E.11688
G1 X136.228 Y139.556 E.11685
G1 X132.554 Y140.54 E.11687
G1 X128.798 Y141.135 E.11685
G1 X125 Y141.334 E.11686
G1 X121.202 Y141.135 E.11686
G1 X117.446 Y140.54 E.11685
G1 X113.772 Y139.556 E.11687
G1 X110.222 Y138.193 E.11685
G1 X106.833 Y136.466 E.11688
G1 X103.643 Y134.395 E.11686
G1 X100.688 Y132.002 E.11684
G1 X97.998 Y129.312 E.11689
G1 X95.605 Y126.357 E.11684
G1 X93.534 Y123.167 E.11686
G1 X91.807 Y119.778 E.11688
G1 X90.444 Y116.228 E.11685
G1 X89.46 Y112.554 E.11687
G1 X88.865 Y108.798 E.11685
G1 X88.666 Y105 E.11686
G1 X88.865 Y101.202 E.11686
G1 X89.46 Y97.446 E.11685
G1 X90.444 Y93.772 E.11687
G1 X91.807 Y90.222 E.11685
G1 X93.534 Y86.833 E.11688
G1 X95.605 Y83.643 E.11686
G1 X97.961 Y80.734 E.11502
G1 X97.718 Y80.435 F10800
G1 F1200
G1 X100.435 Y77.718 E.11807
G1 X103.421 Y75.299 E.11808
G1 X106.644 Y73.207 E.11807
G1 X110.068 Y71.462 E.11809
G1 X113.655 Y70.085 E.11806
G1 X117.367 Y69.09 E.11809
G1 X121.163 Y68.489 E.11809
G1 X125 Y68.288 E.11806
G1 X128.837 Y68.489 E.11806
G1 X132.633 Y69.09 E.11809
G1 X136.345 Y70.085 E.11809
G1 X139.932 Y71.462 E.11806
G1 X143.356 Y73.207 E.11809
G1 X146.579 Y75.299 E.11807
G1 X149.565 Y77.718 E.11808
G1 X152.282 Y80.435 E.11807
G1 X154.701 Y83.421 E.11808
G1 X156.793 Y86.644 E.11807
G1 X158.538 Y90.068 E.11809
G1 X159.915 Y93.655 E.11806
G1 X160.91 Y97.367 E.11809
G1 X161.511 Y101.163 E.11809
G1 X161.712 Y105 E.11806
G1 X161.511 Y108.837 E.11806
G1 X160.91 Y112.633 E.11809
G1 X159.915 Y116.345 E.11809
G1 X158.538 Y119.932 E.11806
G1 X156.793 Y123.356 E.11809
G1 X154.701 Y126.579 E.11807
G1 X152.282 Y129.565 E.11808
G1 X149.565 Y132.282 E.11807
G1 X146.579 Y134.701 E.11808
G1 X143.356 Y136.793 E.11807
G1 X139.932 Y138.538 E.11809
M73 C49
G1 X136.345 Y139.915 E.11806
G1 X132.633 Y140.91 E.11809
G1 X128.837 Y141.511 E.11809
G1 X125 Y141.712 E.11806
G1 X121.163 Y141.511 E.11806
G1 X117.367 Y140.91 E.11809
G1 X113.655 Y139.915 E.11809
G1 X110.068 Y138.538 E.11806
G1 X106.644 Y136.793 E.11809
G1 X103.421 Y134.701 E.11807
G1 X100.435 Y132.282 E.11808
G1 X97.718 Y129.565 E.11807
G1 X95.299 Y126.579 E.11808
G1 X93.207 Y123.356 E.11807
G1 X91.462 Y119.932 E.11809
G1 X90.085 Y116.345 E.11806
G1 X89.09 Y112.633 E.11809
G1 X88.489 Y108.837 E.11809
G1 X88.288 Y105 E.11806
G1 X88.489 Y101.163 E.11806
G1 X89.09 Y97.367 E.11809
G1 X90.085 Y93.655 E.11809
G1 X91.462 Y90.068 E.11806
G1 X93.207 Y86.644 E.11809
G1 X95.299 Y83.421 E.11807
G1 X97.68 Y80.482 E.11622
G1 X97.437 Y80.182 F10800
;TYPE:External perimeter
G1 F1200
G1 X100.182 Y77.437 E.11928
G1 X103.199 Y74.994 E.11929
G1 X106.455 Y72.88 E.11929
G1 X109.914 Y71.117 E.11929
G1 X113.539 Y69.726 E.1193
G1 X117.289 Y68.721 E.11929
G1 X121.123 Y68.114 E.11928
G1 X125 Y67.911 E.11929
G1 X128.877 Y68.114 E.11929
G1 X132.711 Y68.721 E.11928
G1 X136.461 Y69.726 E.11929
G1 X140.086 Y71.117 E.1193
G1 X143.545 Y72.88 E.11929
G1 X146.801 Y74.994 E.11929
G1 X149.818 Y77.437 E.11929
G1 X152.563 Y80.182 E.11928
G1 X155.006 Y83.199 E.11929
G1 X157.12 Y86.455 E.11929
M73 P1 R76
G1 X158.883 Y89.914 E.11929
G1 X160.274 Y93.539 E.1193
G1 X161.279 Y97.289 E.11929
G1 X161.886 Y101.123 E.11928
G1 X162.089 Y105 E.11929
G1 X161.886 Y108.877 E.11929
G1 X161.279 Y112.711 E.11928
G1 X160.274 Y116.461 E.11929
G1 X158.883 Y120.086 E.1193
G1 X157.12 Y123.545 E.11929
G1 X155.006 Y126.801 E.11929
G1 X152.563 Y129.818 E.11929
G1 X149.818 Y132.563 E.11928
G1 X146.801 Y135.006 E.11929
G1 X143.545 Y137.12 E.11929
G1 X140.086 Y138.883 E.11929
G1 X136.461 Y140.274 E.1193
G1 X132.711 Y141.279 E.11929
G1 X128.877 Y141.886 E.11928
G1 X125 Y142.089 E.11929
G1 X121.123 Y141.886 E.11929
G1 X117.289 Y141.279 E.11928
G1 X113.539 Y140.274 E.11929
G1 X109.914 Y138.883 E.1193
G1 X106.455 Y137.12 E.11929
G1 X103.199 Y135.006 E.11929
G1 X100.182 Y132.563 E.11929
G1 X97.437 Y129.818 E.11928
G1 X94.994 Y126.801 E.11929
G1 X92.88 Y123.545 E.11929
G1 X91.117 Y120.086 E.11929
G1 X89.726 Y116.461 E.1193
G1 X88.721 Y112.711 E.11929
G1 X88.114 Y108.877 E.11928
G1 X87.911 Y105 E.11929
G1 X88.114 Y101.123 E.11929
G1 X88.721 Y97.289 E.11928
G1 X89.726 Y93.539 E.11929
G1 X91.117 Y89.914 E.1193
G1 X92.88 Y86.455 E.11929
G1 X94.994 Y83.199 E.11929
G1 X97.399 Y80.229 E.11743
G1 X97.828 Y80.265 F10800
;WIPE_START
G1 F8640
G1 X100.182 Y77.437 E-1.69046
G1 X103.199 Y74.994 E-1.66471
G1 X106.455 Y72.88 E-1.66471
G1 X108.491 Y71.842 E-.98012
;WIPE_END
G1 Z.8 F10800
G1 X152.945 Y82.032
G1 Z.2
G1 E6 F3900
;TYPE:Solid infill
;WIDTH:0.421874
G1 F1200
G1 X149.116 Y78.203 E.16722
G1 X146.298 Y75.921 E.11197
G1 X154.079 Y83.702 E.3398
G1 X154.166 Y83.81 E.00428
G1 X155.121 Y85.28 E.05413
G1 X144.72 Y74.879 E.45422
G1 X143.192 Y73.887 E.05626
G1 X156.113 Y86.808 E.56427
G1 X156.221 Y86.974 E.00612
G1 X156.717 Y87.948 E.03375
G1 X142.052 Y73.283 E.64043
G1 X140.959 Y72.726 E.03788
G1 X157.274 Y89.041 E.71249
G1 X157.831 Y90.134 E.03788
G1 X139.866 Y72.169 E.78455
G1 X139.663 Y72.066 E.00703
G1 X138.955 Y71.794 E.02342
G1 X158.206 Y91.045 E.84071
G1 X158.54 Y91.915 E.02878
G1 X138.085 Y71.46 E.89329
G1 X137.215 Y71.126 E.02878
G1 X158.874 Y92.785 E.94587
G1 X159.208 Y93.654 E.02875
G1 X136.346 Y70.792 E.9984
G1 X136.14 Y70.713 E.00681
G1 X135.581 Y70.564 E.01786
G1 X159.436 Y94.419 E1.04177
G1 X159.633 Y95.151 E.02341
G1 X134.849 Y70.367 E1.08234
M73 P1 R75
G1 X134.117 Y70.171 E.0234
G1 X159.829 Y95.883 E1.12286
G1 X160.025 Y96.615 E.0234
G1 X133.385 Y69.975 E1.16339
G1 X132.653 Y69.779 E.0234
G1 X160.221 Y97.347 E1.20392
G1 X160.263 Y97.505 E.00505
G1 X160.342 Y98.005 E.01563
G1 X131.995 Y69.658 E1.23794
G1 X131.359 Y69.557 E.01989
G1 X160.443 Y98.641 E1.27012
G1 X160.544 Y99.278 E.01992
G1 X130.722 Y69.456 E1.30235
G1 X130.085 Y69.355 E.01992
G1 X160.645 Y99.915 E1.33458
G1 X160.746 Y100.552 E.01992
G1 X129.448 Y69.254 E1.36681
G1 X128.812 Y69.153 E.01989
G1 X160.847 Y101.188 E1.399
G1 X160.881 Y101.759 E.01766
G1 X128.241 Y69.119 E1.42542
G1 X127.676 Y69.089 E.01747
G1 X160.911 Y102.324 E1.4514
M73 P2 R75
G1 X160.94 Y102.89 E.0175
G1 X127.11 Y69.06 E1.47738
G1 X126.544 Y69.03 E.0175
G1 X160.97 Y103.456 E1.50341
M73 C48
G1 X161 Y104.021 E.01747
G1 X125.979 Y69 E1.5294
G1 X125.413 Y68.971 E.0175
G1 X161.029 Y104.587 E1.55538
G1 X161.044 Y105.137 E.01699
G1 X124.863 Y68.956 E1.58005
G1 X124.354 Y68.983 E.01574
G1 X161.017 Y105.646 E1.6011
G1 X160.99 Y106.156 E.01577
G1 X123.844 Y69.01 E1.6222
G1 X123.335 Y69.036 E.01574
G1 X160.964 Y106.665 E1.64329
G1 X160.937 Y107.174 E.01574
G1 X122.826 Y69.063 E1.66434
G1 X122.317 Y69.09 E.01574
G1 X160.91 Y107.683 E1.68539
G1 X160.884 Y108.192 E.01574
G1 X121.808 Y69.116 E1.70648
G1 X121.298 Y69.143 E.01577
G1 X160.857 Y108.702 E1.72757
G1 X160.79 Y109.17 E.0146
G1 X120.83 Y69.21 E1.74509
G1 X120.367 Y69.283 E.01447
G1 X160.717 Y109.633 E1.76212
M73 P2 R74
G1 X160.643 Y110.096 E.01448
G1 X119.904 Y69.357 E1.77911
G1 X119.442 Y69.43 E.01444
G1 X160.57 Y110.558 E1.79609
G1 X160.497 Y111.021 E.01447
G1 X118.979 Y69.503 E1.81313
G1 X118.516 Y69.577 E.01448
M73 P3 R74
G1 X160.423 Y111.484 E1.83011
G1 X160.35 Y111.946 E.01444
G1 X118.054 Y69.65 E1.8471
G1 X117.591 Y69.723 E.01447
G1 X160.277 Y112.409 E1.86413
G1 X160.171 Y112.839 E.01368
G1 X117.161 Y69.829 E1.87828
G1 X116.738 Y69.942 E.01352
G1 X160.058 Y113.262 E1.89182
G1 X159.945 Y113.684 E.01349
G1 X116.316 Y70.055 E1.90532
G1 X115.893 Y70.169 E.01353
G1 X159.831 Y114.107 E1.91881
M73 C47
G1 X159.718 Y114.53 E.01352
G1 X115.47 Y70.282 E1.93235
G1 X115.048 Y70.395 E.01349
G1 X159.605 Y114.952 E1.94584
G1 X159.492 Y115.375 E.01352
G1 X114.625 Y70.508 E1.95938
G1 X114.202 Y70.622 E.01353
G1 X159.378 Y115.798 E1.97287
G1 X159.258 Y116.214 E.01337
G1 X113.786 Y70.742 E1.9858
G1 X113.399 Y70.89 E.01279
G1 X159.11 Y116.601 E1.99624
G1 X158.961 Y116.988 E.01281
G1 X113.012 Y71.039 E2.00663
G1 X112.624 Y71.188 E.01283
G1 X158.812 Y117.376 E2.01707
M73 P4 R74
G1 X158.664 Y117.763 E.01279
G1 X112.237 Y71.336 E2.02751
M73 P4 R73
G1 X111.85 Y71.485 E.01281
G1 X158.515 Y118.15 E2.0379
G1 X158.366 Y118.537 E.01281
G1 X111.463 Y71.634 E2.04829
G1 X111.075 Y71.782 E.01282
G1 X158.218 Y118.925 E2.05877
G1 X158.069 Y119.312 E.01281
G1 X110.688 Y71.931 E2.06917
G1 X110.304 Y72.082 E.01274
G1 X157.918 Y119.696 E2.07934
G1 X157.737 Y120.051 E.01231
G1 X109.949 Y72.263 E2.08694
G1 X109.594 Y72.444 E.01231
G1 X157.556 Y120.406 E2.09454
G1 X157.375 Y120.761 E.01231
G1 X109.239 Y72.625 E2.10214
G1 X108.884 Y72.806 E.01231
G1 X157.194 Y121.116 E2.10974
M73 C46
G1 X157.013 Y121.471 E.01231
G1 X108.529 Y72.987 E2.11734
G1 X108.174 Y73.168 E.01231
G1 X156.832 Y121.826 E2.12494
G1 X156.651 Y122.181 E.01231
G1 X107.819 Y73.349 E2.13253
G1 X107.464 Y73.53 E.01231
G1 X156.47 Y122.536 E2.14013
M73 P5 R73
G1 X156.289 Y122.891 E.01231
G1 X107.109 Y73.711 E2.14773
G1 X106.772 Y73.91 E.01209
G1 X156.09 Y123.228 E2.15376
G1 X155.879 Y123.553 E.01197
G1 X106.447 Y74.121 E2.15874
G1 X106.122 Y74.332 E.01197
G1 X155.668 Y123.878 E2.16372
G1 X155.457 Y124.202 E.01194
G1 X105.798 Y74.543 E2.16865
M73 P5 R72
G1 X105.473 Y74.754 E.01197
G1 X155.246 Y124.527 E2.17363
G1 X155.035 Y124.852 E.01197
G1 X105.148 Y74.965 E2.17861
G1 X104.823 Y75.176 E.01197
G1 X154.824 Y125.177 E2.18359
G1 X154.613 Y125.502 E.01197
G1 X104.498 Y75.387 E2.18856
G1 X104.173 Y75.598 E.01197
G1 X154.402 Y125.827 E2.19354
G1 X154.191 Y126.152 E.01197
G1 X103.848 Y75.809 E2.19852
G1 X103.549 Y76.046 E.01178
G1 X153.954 Y126.451 E2.20123
G1 X153.715 Y126.748 E.01177
G1 X103.252 Y76.285 E2.20376
M73 P6 R72
M73 C45
G1 X102.956 Y76.525 E.01177
G1 X153.475 Y127.044 E2.20621
G1 X153.235 Y127.34 E.01177
G1 X102.66 Y76.765 E2.20865
G1 X102.364 Y77.005 E.01177
G1 X152.995 Y127.636 E2.2111
G1 X152.755 Y127.932 E.01177
G1 X102.068 Y77.245 E2.21354
G1 X101.772 Y77.484 E.01175
G1 X152.516 Y128.228 E2.21603
G1 X152.276 Y128.524 E.01177
G1 X101.476 Y77.724 E2.21848
G1 X101.18 Y77.964 E.01177
G1 X152.036 Y128.82 E2.22092
G1 X151.796 Y129.117 E.01179
G1 X100.883 Y78.204 E2.22341
G1 X100.615 Y78.471 E.01168
G1 X151.529 Y129.385 E2.22346
M73 P6 R71
G1 X151.261 Y129.653 E.0117
G1 X100.347 Y78.739 E2.22346
G1 X100.079 Y79.007 E.0117
G1 X150.993 Y129.921 E2.22346
G1 X150.725 Y130.189 E.0117
G1 X99.811 Y79.275 E2.22346
G1 X99.543 Y79.543 E.0117
G1 X150.457 Y130.457 E2.22346
M73 P7 R71
G1 X150.189 Y130.725 E.0117
G1 X99.275 Y79.811 E2.22346
G1 X99.007 Y80.079 E.0117
G1 X149.921 Y130.993 E2.22346
G1 X149.653 Y131.261 E.0117
G1 X98.739 Y80.347 E2.22346
G1 X98.471 Y80.615 E.0117
G1 X149.385 Y131.529 E2.22346
M73 C44
G1 X149.123 Y131.791 E.01144
G1 X98.204 Y80.883 E2.22344
G1 X97.964 Y81.18 E.01179
G1 X148.821 Y132.036 E2.22095
G1 X148.524 Y132.276 E.01179
G1 X97.724 Y81.476 E2.21848
G1 X97.484 Y81.772 E.01177
G1 X148.228 Y132.516 E2.21603
G1 X147.932 Y132.755 E.01175
G1 X97.245 Y82.068 E2.21354
G1 X97.005 Y82.364 E.01177
G1 X147.636 Y132.995 E2.2111
G1 X147.34 Y133.235 E.01177
G1 X96.765 Y82.66 E2.20865
G1 X96.525 Y82.956 E.01177
G1 X147.044 Y133.475 E2.20621
M73 P7 R70
G1 X146.748 Y133.715 E.01177
G1 X96.285 Y83.252 E2.20376
M73 P8 R70
G1 X96.046 Y83.549 E.01177
G1 X146.452 Y133.954 E2.20125
G1 X146.152 Y134.191 E.01181
G1 X95.809 Y83.848 E2.19852
G1 X95.598 Y84.173 E.01197
G1 X145.827 Y134.402 E2.19354
G1 X145.502 Y134.613 E.01197
G1 X95.387 Y84.498 E2.18856
G1 X95.176 Y84.823 E.01197
