; generated by PrusaSlicer 2.7.0 on 2023-12-03 at 02:49:53 UTC

; 

; external perimeters extrusion width = 0.45mm
; perimeters extrusion width = 0.45mm
; infill extrusion width = 0.45mm
; solid infill extrusion width = 0.45mm
; top infill extrusion width = 0.45mm
; support material extrusion width = 0.35mm
; first layer extrusion width = 0.42mm

M73 P0 R69
M73 C61
M201 X9000 Y9000 Z500 E10000 ; sets maximum accelerations, mm/sec^2
M203 X500 Y500 Z12 E120 ; sets maximum feedrates, mm / sec
M204 S2000 T1500 ; sets acceleration (S) and retract acceleration (R), mm/sec^2
M205 X10.00 Y10.00 Z0.20 E4.50 ; sets the jerk limits, mm/sec
M205 S0 T0 ; sets the minimum extruding and travel feed rate, mm/sec

; printing object Puck-SingleMagnet-Body.stl id:0 copy 0
; stop printing object Puck-SingleMagnet-Body.stl id:0 copy 0

;TYPE:Custom
M862.3 P "MK2.5S" ; printer model check
M862.1 P0.4 ; nozzle diameter check
M115 U3.2.3 ; tell printer latest fw version
G90 ; use absolute coordinates
M83 ; extruder relative mode
M204 S2000 T1500 ; MK2 firmware only supports the old M204 format
G28 W ; home all without mesh bed level
G1 Z30
M140 S85 ; set bed temp
M190 S85 ; wait for bed temp
G28 W
M104 S240 ; set extruder temp
G80 ; mesh bed leveling
G1 Y-3.0 F1000.0 ; go outside print area
M109 S240 ; wait for extruder temp
G92 E0.0
G1 X60.0 E9.0  F1000.0 ; intro line
G1 X100.0 E12.5 F1000.0 ; intro line
G92 E0.0
G21 ; set units to millimeters
G90 ; use absolute coordinates
M83 ; use relative distances for extrusion
M900 K0.08 ; Filament gcode LA 1.5
M900 K45 ; Filament gcode LA 1.0

M107
;LAYER_CHANGE
;Z:0.2
;HEIGHT:0.2
;BEFORE_LAYER_CHANGE
G92 E0.0
M221 S120
;LayerZ: 0.2
;LayerNUM: 0
G1 E-1 F2100
G1 Z.2 F10800
;AFTER_LAYER_CHANGE
;0.2
G1 X99.167 Y81.572
G1 Z.2
G1 E1 F2100
M204 S1000
;TYPE:Skirt/Brim
;WIDTH:0.42
G1 F1200
G1 X101.757 Y79 E.11445
G1 X104.401 Y76.86 E.10665
G1 X107.455 Y74.861 E.11444
G1 X110.702 Y73.192 E.11447
G1 X114.105 Y71.871 E.11446
G1 X117.628 Y70.914 E.11446
G1 X121.231 Y70.33 E.11444
G1 X124.876 Y70.126 E.11447
G1 X127.842 Y70.269 E.0931
G1 X128.769 Y70.33 E.02913
G1 X132.372 Y70.914 E.11444
G1 X135.895 Y71.871 E.11446
G1 X139.298 Y73.192 E.11446
G1 X142.545 Y74.861 E.11447
G1 X145.599 Y76.86 E.11444
G1 X148.428 Y79.167 E.11446
G1 X151 Y81.757 E.11445
G1 X153.14 Y84.401 E.10665
G1 X155.139 Y87.455 E.11444
G1 X156.808 Y90.702 E.11447
G1 X158.129 Y94.105 E.11446
G1 X159.086 Y97.628 E.11446
G1 X159.67 Y101.231 E.11444
G1 X159.874 Y104.876 E.11447
G1 X159.696 Y108.522 E.11445
G1 X159.086 Y112.372 E.12222
G1 X158.129 Y115.895 E.11446
G1 X156.808 Y119.298 E.11446
G1 X155.139 Y122.545 E.11447
G1 X153.14 Y125.599 E.11444
G1 X150.833 Y128.428 E.11446
G1 X148.243 Y131 E.11445
G1 X145.599 Y133.14 E.10665
M73 C60
G1 X142.545 Y135.139 E.11444
G1 X139.298 Y136.808 E.11447
G1 X135.895 Y138.129 E.11446
G1 X132.372 Y139.086 E.11446
G1 X128.769 Y139.67 E.11444
G1 X125.124 Y139.874 E.11447
G1 X121.478 Y139.696 E.11445
G1 X117.628 Y139.086 E.12222
G1 X114.105 Y138.129 E.11446
G1 X110.702 Y136.808 E.11446
G1 X107.455 Y135.139 E.11447
G1 X104.401 Y133.14 E.11444
G1 X101.572 Y130.833 E.11446
G1 X99 Y128.243 E.11445
G1 X96.713 Y125.398 E.11445
G1 X94.736 Y122.329 E.11446
G1 X93.192 Y119.298 E.10665
G1 X91.871 Y115.895 E.11446
G1 X90.914 Y112.372 E.11446
G1 X90.33 Y108.769 E.11444
G1 X90.126 Y105.124 E.11447
G1 X90.304 Y101.478 E.11445
G1 X90.862 Y97.871 E.11444
M73 P0 R68
G1 X91.795 Y94.342 E.11445
G1 X93.091 Y90.929 E.11447
G1 X94.633 Y87.873 E.10733
G1 X96.86 Y84.401 E.12933
G1 X99.129 Y81.619 E.11256
; printing object Puck-SingleMagnet-Body.stl id:0 copy 0
;WIPE_START
G1 F8640
G1 X99.167 Y81.572 E-.01396
G1 X101.757 Y79 E-.84282
G1 X102.239 Y78.61 E-.14322
;WIPE_END
G1 Z.4 F10800
G1 X101.434 Y83.781
G1 Z.2
G1 E1 F2100
;TYPE:Perimeter
;WIDTH:0.419999
G1 F1200
G1 X103.781 Y81.434 E.10407
G1 X106.36 Y79.345 E.10406
G1 X109.144 Y77.537 E.10408
G1 X112.102 Y76.03 E.10409
G1 X115.201 Y74.84 E.10408
G1 X118.407 Y73.981 E.10407
G1 X121.685 Y73.462 E.10406
G1 X125 Y73.288 E.10408
G1 X128.315 Y73.462 E.10408
G1 X131.593 Y73.981 E.10406
G1 X134.799 Y74.84 E.10407
G1 X137.898 Y76.03 E.10408
G1 X140.856 Y77.537 E.10409
G1 X143.64 Y79.345 E.10408
G1 X146.219 Y81.434 E.10406
G1 X148.566 Y83.781 E.10407
G1 X150.655 Y86.36 E.10406
G1 X152.463 Y89.144 E.10408
G1 X153.97 Y92.102 E.10409
G1 X155.16 Y95.201 E.10408
G1 X156.019 Y98.407 E.10407
G1 X156.538 Y101.685 E.10406
G1 X156.711 Y105.024 E.10483
G1 X156.538 Y108.315 E.10333
G1 X156.019 Y111.593 E.10406
G1 X155.16 Y114.799 E.10407
G1 X153.97 Y117.898 E.10408
G1 X152.463 Y120.856 E.10409
G1 X150.655 Y123.64 E.10408
G1 X148.566 Y126.219 E.10406
G1 X146.219 Y128.566 E.10407
G1 X143.64 Y130.655 E.10406
G1 X140.856 Y132.463 E.10408
G1 X137.898 Y133.97 E.10409
G1 X134.799 Y135.16 E.10408
G1 X131.593 Y136.019 E.10407
G1 X128.315 Y136.538 E.10406
G1 X125 Y136.712 E.10408
G1 X121.685 Y136.538 E.10408
G1 X118.407 Y136.019 E.10406
G1 X115.201 Y135.16 E.10407
G1 X112.102 Y133.97 E.10408
G1 X109.144 Y132.463 E.10409
G1 X106.36 Y130.655 E.10408
G1 X103.781 Y128.566 E.10406
G1 X101.434 Y126.219 E.10407
G1 X99.345 Y123.64 E.10406
G1 X97.537 Y120.856 E.10408
G1 X96.03 Y117.898 E.10409
G1 X94.84 Y114.799 E.10408
G1 X93.981 Y111.593 E.10407
G1 X93.462 Y108.315 E.10406
G1 X93.288 Y105 E.10408
G1 X93.462 Y101.685 E.10408
G1 X93.981 Y98.407 E.10406
G1 X94.84 Y95.201 E.10407
G1 X96.03 Y92.102 E.10408
G1 X97.537 Y89.144 E.10409
G1 X99.345 Y86.36 E.10408
G1 X101.396 Y83.827 E.10219
G1 X101.153 Y83.528 F10800
;TYPE:External perimeter
G1 F1200
G1 X103.528 Y81.153 E.10531
G1 X106.138 Y79.039 E.10531
G1 X108.955 Y77.21 E.10531
G1 X111.948 Y75.685 E.10532
G1 X115.084 Y74.481 E.10532
G1 X118.328 Y73.612 E.1053
G1 X121.646 Y73.086 E.10533
G1 X125 Y72.911 E.10531
G1 X128.354 Y73.086 E.10531
G1 X131.672 Y73.612 E.10533
G1 X134.916 Y74.481 E.1053
G1 X138.052 Y75.685 E.10532
G1 X141.045 Y77.21 E.10532
G1 X143.862 Y79.039 E.10531
G1 X146.472 Y81.153 E.10531
G1 X148.847 Y83.528 E.10531
G1 X150.961 Y86.138 E.10531
G1 X152.79 Y88.955 E.10531
G1 X154.315 Y91.948 E.10532
G1 X155.519 Y95.084 E.10532
G1 X156.388 Y98.328 E.1053
G1 X156.914 Y101.646 E.10533
G1 X157.087 Y105.044 E.10668
G1 X156.914 Y108.354 E.10392
G1 X156.388 Y111.672 E.10533
G1 X155.519 Y114.916 E.1053
G1 X154.315 Y118.052 E.10532
G1 X152.79 Y121.045 E.10532
G1 X150.961 Y123.862 E.10531
G1 X148.847 Y126.472 E.10531
G1 X146.472 Y128.847 E.10531
G1 X143.862 Y130.961 E.10531
G1 X141.045 Y132.79 E.10531
G1 X138.052 Y134.315 E.10532
G1 X134.916 Y135.519 E.10532
G1 X131.672 Y136.388 E.1053
G1 X128.354 Y136.914 E.10533
G1 X125 Y137.089 E.10531
G1 X121.646 Y136.914 E.10531
G1 X118.328 Y136.388 E.10533
G1 X115.084 Y135.519 E.1053
G1 X111.948 Y134.315 E.10532
G1 X108.955 Y132.79 E.10532
G1 X106.138 Y130.961 E.10531
G1 X103.528 Y128.847 E.10531
G1 X101.153 Y126.472 E.10531
G1 X99.039 Y123.862 E.10531
G1 X97.21 Y121.045 E.10531
G1 X95.685 Y118.052 E.10532
G1 X94.481 Y114.916 E.10532
G1 X93.612 Y111.672 E.1053
G1 X93.086 Y108.354 E.10533
G1 X92.911 Y105 E.10531
G1 X93.086 Y101.646 E.10531
G1 X93.612 Y98.328 E.10533
G1 X94.481 Y95.084 E.1053
G1 X95.685 Y91.948 E.10532
G1 X97.21 Y88.955 E.10532
G1 X99.039 Y86.138 E.10531
G1 X101.115 Y83.575 E.10342
;WIPE_START
G1 F8640
G1 X101.153 Y83.528 E-.01396
G1 X103.528 Y81.153 E-.77555
G1 X104.236 Y80.579 E-.21049
;WIPE_END
G1 Z.4 F10800
G1 X102.643 Y83.837
G1 Z.2
G1 E1 F2100
;TYPE:Perimeter
G1 F1200
G1 X102.67 Y83.806 E.00129
G1 X105.046 Y81.555 E.10262
G1 X107.698 Y79.535 E.10453
G1 X110.552 Y77.814 E.1045
G1 X113.576 Y76.411 E.10452
G1 X116.734 Y75.344 E.10452
G1 X120.05 Y74.614 E.10646
G1 X123.364 Y74.257 E.10451
G1 X126.636 Y74.257 E.10259
G1 X129.95 Y74.614 E.10451
G1 X133.207 Y75.327 E.10454
G1 X136.367 Y76.389 E.10453
G1 X139.394 Y77.785 E.10452
G1 X142.252 Y79.501 E.10452
G1 X143.066 Y80.116 E.03199
G1 X144.907 Y81.516 E.07252
G1 X147.33 Y83.806 E.10453
G1 X149.49 Y86.344 E.1045
G1 X151.364 Y89.102 E.10455
G1 X152.928 Y92.045 E.1045
G1 X154.165 Y95.141 E.10453
M73 P1 R68
G1 X155.062 Y98.357 E.10468
G1 X155.101 Y98.579 E.00707
G1 X155.603 Y101.644 E.09738
G1 X155.787 Y105.031 E.10635
G1 X155.603 Y108.359 E.10451
G1 X155.06 Y111.648 E.10452
G1 X154.165 Y114.859 E.10452
G1 X152.928 Y117.955 E.10453
G1 X151.364 Y120.898 E.1045
G1 X149.49 Y123.656 E.10455
G1 X147.33 Y126.194 E.1045
G1 X144.907 Y128.484 E.10453
G1 X142.302 Y130.465 E.10261
G1 X139.448 Y132.186 E.1045
G1 X136.424 Y133.589 E.10452
G1 X133.266 Y134.656 E.10452
G1 X130.011 Y135.376 E.10453
G1 X126.697 Y135.74 E.10453
G1 X123.303 Y135.74 E.10642
G1 X119.989 Y135.376 E.10453
G1 X116.734 Y134.656 E.10453
G1 X113.576 Y133.589 E.10452
G1 X110.552 Y132.186 E.10452
G1 X107.748 Y130.499 E.1026
G1 X105.093 Y128.484 E.10451
G1 X102.67 Y126.194 E.10453
G1 X100.51 Y123.656 E.1045
G1 X98.636 Y120.898 E.10455
G1 X98.366 Y120.397 E.01784
G1 X97.072 Y117.955 E.08665
G1 X95.835 Y114.859 E.10453
G1 X94.938 Y111.643 E.10468
G1 X94.397 Y108.356 E.10445
G1 X94.213 Y105.03 E.10444
G1 X94.391 Y101.702 E.1045
G1 X94.927 Y98.412 E.10452
G1 X95.815 Y95.199 E.10452
G1 X97.046 Y92.101 E.10452
G1 X98.605 Y89.154 E.10453
G1 X100.51 Y86.344 E.10644
G1 X102.605 Y83.883 E.10134
G1 X102.916 Y84.095 F10800
;TYPE:External perimeter
G1 F1200
G1 X102.929 Y84.08 E.00062
G1 X105.305 Y81.829 E.10262
G1 X107.926 Y79.836 E.10324
G1 X110.747 Y78.137 E.10325
G1 X113.735 Y76.754 E.10324
G1 X116.855 Y75.701 E.10325
G1 X120.09 Y74.989 E.10386
G1 X123.364 Y74.634 E.10326
G1 X126.636 Y74.634 E.10259
G1 X129.91 Y74.989 E.10326
G1 X133.126 Y75.696 E.10324
G1 X136.246 Y76.746 E.10322
G1 X139.235 Y78.128 E.10325
G1 X142.057 Y79.824 E.10323
G1 X142.838 Y80.416 E.03073
G1 X144.679 Y81.816 E.07252
G1 X147.071 Y84.08 E.10327
G1 X149.203 Y86.588 E.10321
G1 X151.052 Y89.313 E.10325
G1 X152.597 Y92.225 E.10336
G1 X153.816 Y95.283 E.10322
G1 X154.697 Y98.454 E.10319
G1 X155.231 Y101.703 E.10324
G1 X155.41 Y104.99 E.10321
G1 X155.233 Y108.278 E.10324
G1 X154.697 Y111.547 E.10387
G1 X153.821 Y114.7 E.1026
G1 X152.604 Y117.76 E.10325
G1 X151.062 Y120.669 E.10323
G1 X149.215 Y123.395 E.10324
G1 X147.085 Y125.906 E.10324
G1 X144.695 Y128.171 E.10324
G1 X142.074 Y130.164 E.10324
G1 X139.253 Y131.863 E.10325
G1 X136.265 Y133.246 E.10324
G1 X133.145 Y134.299 E.10325
G1 X129.93 Y135.008 E.10323
G1 X126.657 Y135.365 E.10323
G1 X123.343 Y135.365 E.10391
G1 X120.07 Y135.008 E.10323
G1 X116.855 Y134.299 E.10323
G1 X113.735 Y133.246 E.10325
G1 X110.765 Y131.872 E.1026
G1 X107.943 Y130.176 E.10323
G1 X105.321 Y128.184 E.10325
G1 X102.929 Y125.92 E.10327
G1 X100.797 Y123.412 E.10321
G1 X98.948 Y120.687 E.10325
G1 X98.7 Y120.22 E.01658
G1 X97.403 Y117.775 E.08678
G1 X96.184 Y114.717 E.10322
G1 X95.303 Y111.546 E.10319
G1 X94.769 Y108.297 E.10324
G1 X94.59 Y105.01 E.10321
G1 X94.767 Y101.722 E.10324
G1 X95.299 Y98.473 E.10323
G1 X96.179 Y95.3 E.10324
G1 X97.396 Y92.24 E.10325
G1 X98.938 Y89.331 E.10323
G1 X100.797 Y86.588 E.1039
G1 X102.877 Y84.141 E.1007
G1 X102.313 Y83.536 F10800
;TYPE:Perimeter
;WIDTH:0.589589
G1 F1200
G1 X102.363 Y83.482 E.00335
;WIDTH:0.591115
G1 X103.232 Y82.636 E.05528
;WIDTH:0.623962
G1 X104.102 Y81.79 E.05863
G1 X104.462 Y81.476 E.02308
;WIDTH:0.58979
G1 X104.823 Y81.162 E.02176
;WIDTH:0.591114
G1 X105.733 Y80.448 E.05272
;WIDTH:0.62661
G1 X106.643 Y79.734 E.05614
G1 X107.081 Y79.427 E.02596
;WIDTH:0.589992
G1 X107.52 Y79.121 E.02434
;WIDTH:0.591111
G1 X108.452 Y78.538 E.05011
;WIDTH:0.628848
G1 X109.385 Y77.954 E.05363
G1 X109.854 Y77.694 E.02613
;WIDTH:0.591078
G1 X110.323 Y77.434 E.02444
;WIDTH:0.553308
G1 X110.42 Y77.383 E.00465
;WIDTH:0.591107
G1 X111.359 Y76.927 E.04758
;WIDTH:0.630682
G1 X112.298 Y76.471 E.05102
G1 X112.844 Y76.24 E.02897
;WIDTH:0.591083
G1 X113.39 Y76.009 E.02702
;WIDTH:0.551484
G1 X113.492 Y75.97 E.00462
;WIDTH:0.591105
G1 X114.421 Y75.635 E.04501
;WIDTH:0.632106
G1 X115.35 Y75.3 E.04838
G1 X115.972 Y75.113 E.03182
;WIDTH:0.591083
G1 X116.593 Y74.925 E.02957
;WIDTH:0.55006
G1 X116.698 Y74.896 E.00459
;WIDTH:0.591098
G1 X117.603 Y74.675 E.04246
;WIDTH:0.63312
G1 X118.507 Y74.455 E.04566
G1 X119.201 Y74.324 E.03466
;WIDTH:0.591084
G1 X119.894 Y74.193 E.03215
;WIDTH:0.549048
G1 X120.002 Y74.175 E.00461
;WIDTH:0.591093
G1 X120.869 Y74.06 E.03986
;WIDTH:0.633728
G1 X121.736 Y73.944 E.04297
G1 X122.495 Y73.883 E.03741
;WIDTH:0.591084
G1 X123.255 Y73.822 E.03475
;WIDTH:0.54844
G1 X123.364 Y73.816 E.00459
;WIDTH:0.591088
G1 X124.182 Y73.794 E.0373
;WIDTH:0.633932
G1 X125 Y73.773 E.04021
G1 X125.818 Y73.794 E.04021
;WIDTH:0.591088
G1 X126.636 Y73.816 E.0373
;WIDTH:0.548442
G1 X126.745 Y73.822 E.00459
;WIDTH:0.591085
G1 X127.505 Y73.883 E.03475
;WIDTH:0.633728
G1 X128.264 Y73.944 E.03741
G1 X129.131 Y74.06 E.04297
;WIDTH:0.591092
G1 X129.998 Y74.175 E.03986
;WIDTH:0.54905
G1 X130.106 Y74.193 E.00461
;WIDTH:0.591085
G1 X130.799 Y74.324 E.03215
;WIDTH:0.63312
G1 X131.493 Y74.455 E.03466
G1 X132.397 Y74.675 E.04566
;WIDTH:0.591098
G1 X133.302 Y74.896 E.04246
;WIDTH:0.55006
G1 X133.407 Y74.925 E.00459
;WIDTH:0.591083
G1 X134.028 Y75.113 E.02957
;WIDTH:0.632106
G1 X134.65 Y75.3 E.03182
G1 X135.579 Y75.635 E.04838
;WIDTH:0.591104
G1 X136.508 Y75.97 E.04501
;WIDTH:0.551484
G1 X136.61 Y76.009 E.00462
;WIDTH:0.591083
G1 X137.156 Y76.24 E.02702
;WIDTH:0.630682
G1 X137.702 Y76.471 E.02897
G1 X138.641 Y76.927 E.05102
;WIDTH:0.591107
G1 X139.58 Y77.383 E.04758
;WIDTH:0.55331
G1 X139.677 Y77.434 E.00465
;WIDTH:0.591079
G1 X140.146 Y77.694 E.02444
;WIDTH:0.628848
G1 X140.615 Y77.954 E.02613
G1 X141.548 Y78.538 E.05363
;WIDTH:0.591111
G1 X142.48 Y79.121 E.05011
;WIDTH:0.555548
G1 X142.572 Y79.181 E.00468
;WIDTH:0.59108
G1 X142.964 Y79.458 E.02188
;WIDTH:0.626612
G1 X143.357 Y79.734 E.02331
G1 X144.267 Y80.448 E.05614
;WIDTH:0.591114
G1 X145.177 Y81.162 E.05272
;WIDTH:0.55819
G1 X145.261 Y81.232 E.00468
;WIDTH:0.591076
G1 X145.58 Y81.511 E.01932
;WIDTH:0.623962
G1 X145.898 Y81.79 E.02044
G1 X146.768 Y82.636 E.05863
;WIDTH:0.591115
G1 X147.637 Y83.482 E.05528
;WIDTH:0.561242
G1 X147.713 Y83.56 E.00469
;WIDTH:0.591076
G1 X147.962 Y83.831 E.01677
;WIDTH:0.62091
G1 X148.211 Y84.101 E.01765
G1 X149.021 Y85.078 E.06099
;WIDTH:0.591122
G1 X149.832 Y86.055 E.05788
;WIDTH:0.564708
G1 X149.899 Y86.141 E.00473
;WIDTH:0.591081
G1 X150.085 Y86.391 E.0142
;WIDTH:0.617454
G1 X150.27 Y86.64 E.01482
G1 X151.003 Y87.745 E.06335
;WIDTH:0.591126
G1 X151.736 Y88.849 E.06041
;WIDTH:0.568574
G1 X151.794 Y88.943 E.00483
;WIDTH:0.613584
G1 X152.052 Y89.381 E.02412
G1 X153.327 Y91.834 E.13118
;WIDTH:0.609312
G1 X153.539 Y92.294 E.02385
G1 X154.587 Y94.973 E.13548
;WIDTH:0.604628
G1 X154.713 Y95.346 E.01839
G1 X155.5 Y98.23 E.13963
;WIDTH:0.599538
G1 X155.562 Y98.504 E.013
G1 X156.055 Y101.567 E.14359
;WIDTH:0.594038
G1 X156.247 Y104.944 E.155
;WIDTH:0.589642
G1 X156.249 Y105 E.00255
G1 X156.247 Y105.054 E.00246
;WIDTH:0.59404
G1 X156.055 Y108.433 E.1551
;WIDTH:0.59954
G1 X155.562 Y111.496 E.14359
G1 X155.502 Y111.761 E.01258
;WIDTH:0.604628
G1 X154.713 Y114.654 E.14006
G1 X154.587 Y115.027 E.01839
;WIDTH:0.609314
G1 X153.539 Y117.706 E.13548
G1 X153.327 Y118.166 E.02385
;WIDTH:0.613586
G1 X152.052 Y120.619 E.13118
G1 X151.736 Y121.151 E.02936
;WIDTH:0.591127
G1 X151.003 Y122.255 E.06041
;WIDTH:0.617454
G1 X150.27 Y123.36 E.06335
G1 X150.051 Y123.653 E.01748
;WIDTH:0.589393
G1 X149.832 Y123.945 E.01659
;WIDTH:0.591121
G1 X149.021 Y124.922 E.05788
;WIDTH:0.62091
G1 X148.211 Y125.899 E.06099
G1 X147.924 Y126.209 E.0203
;WIDTH:0.589589
G1 X147.637 Y126.518 E.01917
;WIDTH:0.591115
G1 X146.768 Y127.364 E.05528
;WIDTH:0.623962
G1 X145.898 Y128.21 E.05863
G1 X145.538 Y128.524 E.02308
;WIDTH:0.589789
G1 X145.177 Y128.838 E.02176
;WIDTH:0.591114
G1 X144.267 Y129.552 E.05272
;WIDTH:0.626612
G1 X143.357 Y130.266 E.05614
G1 X142.919 Y130.573 E.02596
;WIDTH:0.589993
G1 X142.48 Y130.879 E.02434
;WIDTH:0.591111
G1 X141.548 Y131.462 E.05011
;WIDTH:0.628848
G1 X140.615 Y132.046 E.05363
G1 X140.146 Y132.306 E.02613
;WIDTH:0.59108
G1 X139.677 Y132.566 E.02444
;WIDTH:0.553312
G1 X139.58 Y132.617 E.00465
;WIDTH:0.591108
G1 X138.641 Y133.073 E.04758
;WIDTH:0.630682
